svgs/sharp-regular/earth-asia.svg

<svg xmlns="http://www.w3.org/2000/svg" viewBox="0 0 512 512"><!--! Font Awesome Pro 6.6.0 by @fontawesome - https://fontawesome.com License - https://fontawesome.com/license (Commercial License) Copyright 2024 Fonticons, Inc. --><path d="M367.6 431.6L352 416l-64 0 0-64 64-64 64 0 0 32 38 0c6.5-20.2 10-41.7 10-64c0-98.4-68.3-180.8-160-202.4l0 58.4-32 32 0 80-48 0 0 96-64 0-32-32-77.6 0C65.8 387.7 152 464 256 464c41.1 0 79.3-11.9 111.6-32.4zM0 256a256 256 0 1 1 512 0A256 256 0 1 1 0 256zM192 384l-64 0 0-32 64 0 0 32zM352 128l0 64-32 0 0-64 32 0zM256 256l32 0 0 64-32 0 0-64z"/></svg>

<svg xmlns="http://www.w3.org/2000/svg" viewBox="0 0 512 512"><!--! Font Awesome Pro 6.4.0 by @fontawesome - https://fontawesome.com License - https://fontawesome.com/license (Commercial License) Copyright 2023 Fonticons, Inc. --><path d="M367.6 431.6L352 416H288V352l64-64h64v32h38c6.5-20.2 10-41.7 10-64c0-98.4-68.3-180.8-160-202.4V112l-32 32v80H224v96H160l-32-32H50.4C65.8 387.7 152 464 256 464c41.1 0 79.3-11.9 111.6-32.4zM0 256a256 256 0 1 1 512 0A256 256 0 1 1 0 256zM192 384H128V352h64v32zM352 128v64H320V128h32zM256 256h32v64H256V256z"/></svg>
